X:1
T:The Lehigh Valley
M:6/8
L:1/8
K:G
 c| ccG G2 G| G3 G2 A| AAA A2 A| A3- A2 A| A2 A AAA| A3 AAA| D2 D DE^F|\
 G3||
